Suru++-Ubuntu/apps/scalable/playonlinux.svg

<svg width="256" height="256" version="1.1" viewBox="0 0 67.73 67.73" xmlns="http://www.w3.org/2000/svg" xmlns:xlink="http://www.w3.org/1999/xlink">
 <defs>
  <linearGradient id="linearGradient1108" x1="296" x2="296" y1="-212" y2="236" gradientUnits="userSpaceOnUse">
   <stop style="stop-color:#ffffff" offset="0"/>
   <stop style="stop-color:#ffffff;stop-opacity:.09803922" offset=".125"/>
   <stop style="stop-color:#000000;stop-opacity:.09803922" offset=".925"/>
   <stop style="stop-color:#000000;stop-opacity:.49803922" offset="1"/>
  </linearGradient>
  <clipPath id="clipPath1082-3-361">
   <path d="M 361.9375,-212 C 507.2348,-212 528,-191.28677 528,-46.125 V 70.125 C 528,215.28618 507.2348,236 361.9375,236 H 214.0625 C 68.7652,236 48,215.28618 48,70.125 V -46.125 C 48,-191.28677 68.7652,-212 214.0625,-212 Z" style="fill:#8c59d9"/>
  </clipPath>
  <filter id="filter4569" x="-.01" y="-.01" width="1.023" height="1.025" style="color-interpolation-filters:sRGB">
   <feGaussianBlur stdDeviation="1.16"/>
  </filter>
  <filter id="filter939" x="-.02" y="-.03" width="1.046" height="1.05" style="color-interpolation-filters:sRGB">
   <feGaussianBlur stdDeviation="2.32"/>
  </filter>
 </defs>
 <g transform="translate(0,-229.26666)">
  <path transform="matrix(.26970779 0 0 .26970779 -1.9098094e-8 231.46531)" d="m162.53675 5.5680001c72.64865 0 83.03125 10.356615 83.03125 82.937505v58.125005c0 72.58059-10.3826 82.9375-83.03125 82.9375h-73.937496c-72.648654 0-83.031254-10.35691-83.031254-82.9375v-58.125005c0-72.58089 10.3826-82.937505 83.031254-82.937505z" style="filter:url(#filter939);opacity:.2"/>
  <path d="m43.837429 232.42763c19.593907 0 22.394176 2.79326 22.394176 22.36889v15.67677c0 19.57555-2.800269 22.36889-22.394176 22.36889h-19.941519c-19.593909 0-22.394177-2.79334-22.394177-22.36889v-15.67677c0-19.57563 2.8002682-22.36889 22.394177-22.36889z" style="fill:none;opacity:.1;stroke-linecap:round;stroke-linejoin:round;stroke-width:1.0788311;stroke:#000000"/>
  <path transform="matrix(.26970779 0 0 .26970779 -1.9098094e-8 231.46531)" d="m162.53675 3.5680001c72.64865 0 83.03125 10.356615 83.03125 82.937505v58.125005c0 72.58059-10.3826 82.9375-83.03125 82.9375h-73.937496c-72.648654 0-83.031254-10.35691-83.031254-82.9375v-58.125005c0-72.58089 10.3826-82.937505 83.031254-82.937505z" style="filter:url(#filter4569);opacity:.1"/>
  <path d="m43.837427 232.42763c19.593907 0 22.394175 2.79326 22.394175 22.36889v15.67677c0 19.57555-2.800268 22.36889-22.394175 22.36889h-19.94152c-19.593907 0-22.394176-2.79334-22.394176-22.36889v-15.67677c0-19.57563 2.8002682-22.36889 22.394176-22.36889z" style="fill:#4f618b"/>
  <path transform="matrix(.1348539 0 0 .1348539 -4.9712559 261.01666)" d="M 361.9375,-212 C 507.2348,-212 528,-191.28677 528,-46.125 V 70.125 C 528,215.28618 507.2348,236 361.9375,236 H 214.0625 C 68.7652,236 48,215.28618 48,70.125 V -46.125 C 48,-191.28677 68.7652,-212 214.0625,-212 Z" clip-path="url(#clipPath1082-3-361)" style="fill:none;opacity:.4;stroke-linecap:round;stroke-linejoin:round;stroke-width:8;stroke:url(#linearGradient1108)"/>
  <path transform="matrix(.26458333 0 0 .26458333 0 229.26666)" d="m24.737929 229.36448c1.612527 1.04055 4.383145 2.83168 6.252305 3.67849 2.11807 0.95957 4.406996 1.80005 6.878907 2.53515 2.471911 0.73511 5.126939 1.3659 7.978515 1.90235 2.851577 0.53645 5.899184 0.98013 9.15625 1.34375 3.257066 0.36361 6.723729 0.64669 10.41211 0.86328 7.376761 0.43319 15.641473 0.59766 24.898437 0.59766h75.371097c9.25696 0 17.52167-0.16447 24.89843-0.59766 3.68838-0.21659 7.15505-0.49967 10.41211-0.86328 3.25707-0.36362 6.30468-0.8073 9.15625-1.34375 2.85158-0.53645 5.50661-1.16724 7.97852-1.90235 2.47191-0.7351 4.76084-1.57558 6.87891-2.53515s4.06541-2.03819 5.85546-3.24805c1.79006-1.20986 3.4223-2.55115 4.91016-4.03711s2.83148-3.11642 4.04297-4.90429c1.21149-1.78788 2.291-3.73205 3.25195-5.84766s1.80283-4.40194 2.53907-6.87109c0.73623-2.46916 1.36696-5.12218 1.90429-7.97071 0.53734-2.84852 0.98144-5.89278 1.34571-9.14648 0.36426-3.25371 0.64821-6.71569 0.86523-10.40039 0.43404-7.36941 0.59961-15.62671 0.59961-24.875v-59.251956c0-9.248329-0.16557-17.505574-0.59961-24.875-0.21702-3.684712-0.50097-7.146679-0.86523-10.40039-0.36427-3.253712-0.80837-6.297958-1.34571-9.146485-0.53733-2.848527-1.16806-5.501544-1.90429-7.970703-0.73624-2.469159-1.57812-4.755486-2.53907-6.871094-0.96095-2.115607-2.04046-4.059783-3.25195-5.847656-1.21149-1.787872-2.55511-3.418343-4.04297-4.904297-1.03932-1.037986-3.19361-2.732201-4.37849-3.633565z" style="fill:#ffffff;opacity:.1"/>
  <path transform="matrix(.26458333 0 0 .26458333 0 229.26666)" d="m24.804688 22.708984c-1.649996 1.14507-3.192251 2.379577-4.580079 3.765625-1.48786 1.485954-2.831475 3.116425-4.042968 4.904297-1.211493 1.787873-2.291004 3.732049-3.251953 5.847656-0.96095 2.115608-1.802833 4.401935-2.539063 6.871094-0.7362302 2.469159-1.3669615 5.122176-1.9042969 7.970703s-0.9814381 5.892773-1.3457031 9.146485c-0.364265 3.253711-0.6482154 6.715678-0.8652344 10.40039-0.4340378 7.369426-0.5996094 15.626671-0.5996094 24.875v59.251956c0 9.24829 0.1655716 17.50559 0.5996094 24.875 0.217019 3.6847 0.5009694 7.14668 0.8652344 10.40039 0.364265 3.2537 0.8083677 6.29796 1.3457031 9.14648 0.5373354 2.84853 1.1680667 5.50155 1.9042969 7.97071 0.73623 2.46915 1.578113 4.75548 2.539063 6.87109 0.960949 2.11561 2.04046 4.05978 3.251953 5.84766 1.211493 1.78787 2.555108 3.41833 4.042968 4.90429 1.487861 1.48596 3.120103 2.82725 4.910157 4.03711 1.790053 1.20986 3.737399 2.28848 5.855468 3.24805 2.11807 0.95957 4.406996 1.80005 6.878907 2.53515 2.471911 0.73511 5.126939 1.3659 7.978515 1.90235 2.851577 0.53645 5.899184 0.98013 9.15625 1.34375 3.257066 0.36361 6.723729 0.64669 10.41211 0.86328 7.376761 0.43319 15.641473 0.59766 24.898437 0.59766h75.371097c9.25696 0 17.52167-0.16447 24.89843-0.59766 3.68838-0.21659 7.15505-0.49967 10.41211-0.86328 3.25707-0.36362 6.30468-0.8073 9.15625-1.34375 2.85158-0.53645 5.50661-1.16724 7.97852-1.90235 2.47191-0.7351 4.76084-1.57558 6.87891-2.53515s4.06541-2.03819 5.85546-3.24805c0.09029-0.06102 0.15857-0.14143 0.24805-0.20312-54.27503-54.5956-176.11433-177.06226-206.30859-206.88282z" style="fill:#ffffff;opacity:.1"/>
  <g transform="matrix(.59335714 0 0 .59335714 -6.6754015 224.03103)">
   <g transform="matrix(.89999986 0 0 .89999986 -2.2908017 22.23834)">
    <g transform="translate(-2.0911827 .30425213)">
     <rect x="35.1" y="1.82" width="42.424" height="42.424" ry="0" style="fill:#45d03f"/>
     <rect x="83.58" y="1.82" width="42.424" height="42.424" ry="0" style="fill:#f03916"/>
     <rect x="35.1" y="50.31" width="42.424" height="42.424" ry="0" style="fill:#01a3ee"/>
     <rect x="83.58" y="50.31" width="42.424" height="42.424" ry="0" style="fill:#ffcc00"/>
    </g>
   </g>
  </g>
 </g>
</svg>

<svg xmlns="http://www.w3.org/2000/svg" xmlns:xlink="http://www.w3.org/1999/xlink" width="256" height="256" version="1.1" viewBox="0 0 67.73 67.73">
 <defs>
  <linearGradient id="linearGradient1108" x1="296" x2="296" y1="-212" y2="236" gradientUnits="userSpaceOnUse" xlink:href="#linearGradient1013"/>
  <linearGradient id="linearGradient1013">
   <stop offset="0" style="stop-color:#ffffff"/>
   <stop style="stop-color:#ffffff;stop-opacity:0.09803922" offset=".125"/>
   <stop style="stop-color:#000000;stop-opacity:0.09803922" offset=".925"/>
   <stop offset="1" style="stop-color:#000000;stop-opacity:0.49803922"/>
  </linearGradient>
  <clipPath id="clipPath1082-3-361" clipPathUnits="userSpaceOnUse">
   <path d="M 361.9375,-212 C 507.2348,-212 528,-191.28677 528,-46.125 V 70.125 C 528,215.28618 507.2348,236 361.9375,236 H 214.0625 C 68.7652,236 48,215.28618 48,70.125 V -46.125 C 48,-191.28677 68.7652,-212 214.0625,-212 Z" style="fill:#8c59d9"/>
  </clipPath>
  <filter style="color-interpolation-filters:sRGB" id="filter4569" width="1.023" height="1.025" x="-.01" y="-.01">
   <feGaussianBlur stdDeviation="1.16"/>
  </filter>
  <filter style="color-interpolation-filters:sRGB" id="filter939" width="1.046" height="1.05" x="-.02" y="-.03">
   <feGaussianBlur stdDeviation="2.32"/>
  </filter>
 </defs>
 <g transform="translate(0,-229.26666)">
  <path style="opacity:0.2;filter:url(#filter939)" d="m 162.53675,5.5680001 c 72.64865,0 83.03125,10.3566149 83.03125,82.9375049 v 58.125005 c 0,72.58059 -10.3826,82.9375 -83.03125,82.9375 H 88.599254 C 15.9506,229.56801 5.568,219.2111 5.568,146.63051 V 88.505505 c 0,-72.58089 10.3826,-82.9375049 83.031254,-82.9375049 z" transform="matrix(0.26970779,0,0,0.26970779,-1.9098094e-8,231.46531)"/>
  <path d="m 43.837429,232.42763 c 19.593907,0 22.394176,2.79326 22.394176,22.36889 v 15.67677 c 0,19.57555 -2.800269,22.36889 -22.394176,22.36889 H 23.89591 c -19.5939088,0 -22.394177,-2.79334 -22.394177,-22.36889 v -15.67677 c 0,-19.57563 2.8002682,-22.36889 22.394177,-22.36889 z" style="opacity:0.1;fill:none;stroke:#000000;stroke-width:1.07883108;stroke-linecap:round;stroke-linejoin:round"/>
  <path d="m 162.53675,3.5680001 c 72.64865,0 83.03125,10.3566149 83.03125,82.9375049 v 58.125005 c 0,72.58059 -10.3826,82.9375 -83.03125,82.9375 H 88.599254 C 15.9506,227.56801 5.568,217.2111 5.568,144.63051 V 86.505505 c 0,-72.58089 10.3826,-82.9375049 83.031254,-82.9375049 z" transform="matrix(0.26970779,0,0,0.26970779,-1.9098094e-8,231.46531)" style="opacity:0.1;filter:url(#filter4569)"/>
  <path style="fill:#4f618b" d="m 43.837427,232.42763 c 19.593907,0 22.394175,2.79326 22.394175,22.36889 v 15.67677 c 0,19.57555 -2.800268,22.36889 -22.394175,22.36889 h -19.94152 c -19.5939074,0 -22.3941756,-2.79334 -22.3941756,-22.36889 v -15.67677 c 0,-19.57563 2.8002682,-22.36889 22.3941756,-22.36889 z"/>
  <path d="M 361.9375,-212 C 507.2348,-212 528,-191.28677 528,-46.125 V 70.125 C 528,215.28618 507.2348,236 361.9375,236 H 214.0625 C 68.7652,236 48,215.28618 48,70.125 V -46.125 C 48,-191.28677 68.7652,-212 214.0625,-212 Z" clip-path="url(#clipPath1082-3-361)" transform="matrix(0.1348539,0,0,0.1348539,-4.9712559,261.01666)" style="opacity:0.4;fill:none;stroke:url(#linearGradient1108);stroke-width:8;stroke-linecap:round;stroke-linejoin:round"/>
  <path style="opacity:0.1;fill:#ffffff" d="m 24.737929,229.36448 c 1.612527,1.04055 4.383145,2.83168 6.252305,3.67849 2.11807,0.95957 4.406996,1.80005 6.878907,2.53515 2.471911,0.73511 5.126939,1.3659 7.978515,1.90235 2.851577,0.53645 5.899184,0.98013 9.15625,1.34375 3.257066,0.36361 6.723729,0.64669 10.41211,0.86328 7.376761,0.43319 15.641473,0.59766 24.898437,0.59766 h 75.371097 c 9.25696,0 17.52167,-0.16447 24.89843,-0.59766 3.68838,-0.21659 7.15505,-0.49967 10.41211,-0.86328 3.25707,-0.36362 6.30468,-0.8073 9.15625,-1.34375 2.85158,-0.53645 5.50661,-1.16724 7.97852,-1.90235 2.47191,-0.7351 4.76084,-1.57558 6.87891,-2.53515 2.11807,-0.95957 4.06541,-2.03819 5.85546,-3.24805 1.79006,-1.20986 3.4223,-2.55115 4.91016,-4.03711 1.48786,-1.48596 2.83148,-3.11642 4.04297,-4.90429 1.21149,-1.78788 2.291,-3.73205 3.25195,-5.84766 0.96095,-2.11561 1.80283,-4.40194 2.53907,-6.87109 0.73623,-2.46916 1.36696,-5.12218 1.90429,-7.97071 0.53734,-2.84852 0.98144,-5.89278 1.34571,-9.14648 0.36426,-3.25371 0.64821,-6.71569 0.86523,-10.40039 0.43404,-7.36941 0.59961,-15.62671 0.59961,-24.875 V 96.490234 c 0,-9.248329 -0.16557,-17.505574 -0.59961,-24.875 -0.21702,-3.684712 -0.50097,-7.146679 -0.86523,-10.40039 -0.36427,-3.253712 -0.80837,-6.297958 -1.34571,-9.146485 -0.53733,-2.848527 -1.16806,-5.501544 -1.90429,-7.970703 -0.73624,-2.469159 -1.57812,-4.755486 -2.53907,-6.871094 -0.96095,-2.115607 -2.04046,-4.059783 -3.25195,-5.847656 -1.21149,-1.787872 -2.55511,-3.418343 -4.04297,-4.904297 -1.03932,-1.037986 -3.19361,-2.732201 -4.37849,-3.633565 z" transform="matrix(0.26458333,0,0,0.26458333,0,229.26666)"/>
  <path style="fill:#ffffff;opacity:0.1" d="M 24.804688 22.708984 C 23.154692 23.854054 21.612437 25.088561 20.224609 26.474609 C 18.736749 27.960563 17.393134 29.591034 16.181641 31.378906 C 14.970148 33.166779 13.890637 35.110955 12.929688 37.226562 C 11.968738 39.34217 11.126855 41.628497 10.390625 44.097656 C 9.6543948 46.566815 9.0236635 49.219832 8.4863281 52.068359 C 7.9489927 54.916886 7.50489 57.961132 7.140625 61.214844 C 6.77636 64.468555 6.4924096 67.930522 6.2753906 71.615234 C 5.8413528 78.98466 5.6757812 87.241905 5.6757812 96.490234 L 5.6757812 155.74219 C 5.6757812 164.99048 5.8413528 173.24778 6.2753906 180.61719 C 6.4924096 184.30189 6.77636 187.76387 7.140625 191.01758 C 7.50489 194.27128 7.9489927 197.31554 8.4863281 200.16406 C 9.0236635 203.01259 9.6543948 205.66561 10.390625 208.13477 C 11.126855 210.60392 11.968738 212.89025 12.929688 215.00586 C 13.890637 217.12147 14.970148 219.06564 16.181641 220.85352 C 17.393134 222.64139 18.736749 224.27185 20.224609 225.75781 C 21.71247 227.24377 23.344712 228.58506 25.134766 229.79492 C 26.924819 231.00478 28.872165 232.0834 30.990234 233.04297 C 33.108304 234.00254 35.39723 234.84302 37.869141 235.57812 C 40.341052 236.31323 42.99608 236.94402 45.847656 237.48047 C 48.699233 238.01692 51.74684 238.4606 55.003906 238.82422 C 58.260972 239.18783 61.727635 239.47091 65.416016 239.6875 C 72.792777 240.12069 81.057489 240.28516 90.314453 240.28516 L 165.68555 240.28516 C 174.94251 240.28516 183.20722 240.12069 190.58398 239.6875 C 194.27236 239.47091 197.73903 239.18783 200.99609 238.82422 C 204.25316 238.4606 207.30077 238.01692 210.15234 237.48047 C 213.00392 236.94402 215.65895 236.31323 218.13086 235.57812 C 220.60277 234.84302 222.8917 234.00254 225.00977 233.04297 C 227.12784 232.0834 229.07518 231.00478 230.86523 229.79492 C 230.95552 229.7339 231.0238 229.65349 231.11328 229.5918 C 176.83825 174.9962 54.998949 52.529536 24.804688 22.708984 z" transform="matrix(0.26458333,0,0,0.26458333,0,229.26666)"/>
  <g transform="matrix(0.59335714,0,0,0.59335714,-6.6754015,224.03103)">
   <g transform="matrix(0.89999986,0,0,0.89999986,-2.2908017,22.23834)">
    <g transform="translate(-2.0911827,0.30425213)">
     <rect style="fill:#45d03f" width="42.424" height="42.424" x="35.1" y="1.82" ry="0"/>
     <rect width="42.424" height="42.424" x="83.58" y="1.82" ry="0" style="fill:#f03916"/>
     <rect width="42.424" height="42.424" x="35.1" y="50.31" ry="0" style="fill:#01a3ee"/>
     <rect style="fill:#ffcc00" width="42.424" height="42.424" x="83.58" y="50.31" ry="0"/>
    </g>
   </g>
  </g>
 </g>
</svg>
